X:1
T:Preludio I, BWV846
T:Prelude I, C Major, BWV846
T:WTC 1
T:Johann Sebastian Bach
C:Johann Sebastian Bach
%%score ( 1 2 3 4 )
L:1/8
M:4/4
K:C
V:1 treble-8 nm="Classical Guitar" snm="Guit."
V:2 treble-8 
V:3 treble-8 
V:4 treble-8 
V:1
"^D" z/ !2!E3/2- E2 z/ E3/2- E2 | %1
 z/ !0!D3/2- D2 z/"^Arr. for Guitar: Alejandro Ramírez S." D3/2- D2 | z/ !0!D3/2- D2 z/ D3/2- D2 | %3
 z/ E3/2- E2 z/ E3/2- E2 | z/"^CII" !1!E3/2-"^CV" E2 z/ E3/2- E2 | z/ !0!D/ z z2 z/ D/ z z2 | %6
 z/ !0!D3/2- D2 z/ D3/2- D2 | z/ !3!C3/2- C2 z/ C3/2- C2 | z z z2 z z z2 | %9
 z/ !0!A,3/2- A,2 z/ A,3/2- A,2 | z/ !1!B,3/2- B,2 z/ B,3/2- B,2 | %11
 z/ !4!_B,3/2- B,2 z/ B,3/2- B,2 | z/ !0!A,3/2- A,2 z/ A,3/2- A,2 | %13
 z/ !4!_A,3/2- A,2 z/ A,3/2- A,2 | z z z2 z z z2 | z/ !3!F,3/2- F,2 z/ F,3/2- F,2 | z z z2 z z z2 | %17
 z/ !0!D/ z z2 z/ D/ z z2 | z/ !2!E3/2- E2 z/ E3/2- E2 | z/ G/ z z2 z/ G/ z z2 | %20
 z/ !4!F3/2- F2 z/ F3/2- F2 | z/ !2!C3/2- C2 z/ C3/2- C2 | z/ !4!_E3/2- E2 z/ E3/2- E2 | %23
 z/ !4!F3/2- F2 z/ F3/2- F2 | z/ !4!F3/2- F2 z/ F3/2- F2 |"^CV" z/ !3!E3/2- E2 z/ E3/2- E2 | %26
 z/ !0!D3/2- D2 z/ D3/2- D2 | z/ !0!D3/2- D2 z/ D3/2- D2 |"^CV" z/ !2!_E3/2- E2 z/ E3/2- E2 | %29
"^CV" z/ !3!E3/2- E2 z/ E3/2- E2 | z/ !0!D3/2- D2 z/ D3/2- D2 | z/ !0!D3/2- D2 z/ D3/2- D2 | %32
 z/ !1!c7/2 z/ c7/2 |!>(! z/ !1!c3/2"^CI" z6!>)! | z/ !0!B/!0!G/!0!B/!>(! z6!>)! | [CEGc]8 |] %36
V:2
 !3!C4 C4 | !3!C4 C4 | !2!B,4 B,4 | !3!C4 C4 | !2!C4 C4 | !2!C4 C4 | !2!B,4 B,4 | %7
 !2!B,/ x7/2 B,/ x7/2 | x8 | !0!D,4 D,4 | !4!G,4 G,4 | !1!G,/ x7/2 G,/ x7/2 | !2!F,4 F,4 | %13
 !1!F,/ x7/2 F,/ x7/2 | !1!E,/!4!G,/ x3 E,/G,/ x3 | !2!E,/ x7/2 E,/ x7/2 | x8 | !2!G,4 G,4 | %18
 !3!C4 C4 | C4 C4 | !3!F,4 F,4 | !3!^F,3/2 x5/2 F,3/2 x5/2 | !2!G,4 G,4 | !2!_A,4 _A,4 | %24
 !1!G,4 G,4 | G,4 G,4 | !2!G,4 G,4 | !2!G,4 G,4 | !1!G,4 G,4 | !1!G,4 G,4 | !2!G,4 G,4 | %31
 !2!G,4 G,4 | !3!C4 C4 | !3!C8 | !3!C8 | x8 |] %36
V:3
 x !0!G/!1!c/ e/G/c/e/ x G/c/ e/G/c/e/ | x !2!A/!4!d/ !1!f/A/d/f/ x A/d/ f/A/d/f/ | %2
 x G/!3!d/ !4!f/G/d/f/ x G/d/ f/G/d/f/ | x G/c/ e/G/c/e/ x G/c/ e/G/c/e/ | %4
 x A/e/ !4!a/A/e/a/ x A/e/ a/A/e/a/ | x !4!^F/!1!A/ !3!d/F/A/d/ x ^F/A/ d/F/A/d/ | %6
 x !0!G/!3!d/ !4!g/G/d/g/ x G/d/ g/G/d/g/ | x !2!E/G/ !1!c/E/G/c/ x E/G/ c/E/G/c/ | %8
 x !2!E/G/ !1!c/E/G/c/ x E/G/ c/E/G/c/ | x !3!D/!2!^F/ !4!c/D/F/c/ x D/F/ c/D/F/c/ | %10
 x !0!D/!0!G/ !0!B/D/G/B/ x D/G/ B/D/G/B/ | x !3!E/!1!G/ !2!^c/E/G/c/ x E/G/ c/E/G/c/ | %12
 x !0!D/!1!A/ !3!d/D/A/d/ x D/A/ d/D/A/d/ | x !3!D/!1!F/ !0!B/D/F/B/ x D/F/ B/D/F/B/ | %14
 x !2!C/!0!G/ !1!c/C/G/c/ x C/G/ c/C/G/c/ | x !2!A/"^CI"!1!c/ f/A/c/f/ x A/c/ f/A/c/f/ | %16
 x !2!A/"^CI"!1!c/ f/A/c/f/ x A/c/ f/A/c/f/ | x !0!G/!1!B/ !4!f/G/B/f/ x G/B/ f/G/B/f/ | %18
 x G/!1!c/ e/G/c/e/ x G/c/ e/G/c/e/ | x !4!_B/!1!c/ !0!e/B/c/e/ x B/c/ e/B/c/e/ | %20
 x !2!A/!1!c/ !0!e/A/c/e/ x A/c/ e/A/c/e/ | x"^CII" !1!A/!4!c/ !3!_e/A/c/e/ x A/c/ e/A/c/e/ | %22
 x"^CIV" !1!B/!3!c/ _e/B/c/e/ x B/c/ e/B/c/e/ | x !0!B/!1!c/ !3!d/!0!B/c/d/ x B/c/ d/B/c/d/ | %24
 x !0!G/!0!B/ !3!d/G/B/d/ x G/B/ d/G/B/d/ | x G/c/ e/G/c/e/ x G/c/ e/G/c/e/ | %26
 x !0!G/!3!c/ !4!f/G/c/f/ x G/c/ f/G/c/f/ | x !0!G/!1!B/ !4!f/G/B/f/ x G/B/ f/G/B/f/ | %28
 x !3!A/c/ !4!^f/A/c/f/ x A/c/ f/A/c/f/ | x G/c/ !4!g/G/c/g/ x G/c/ g/G/c/g/ | %30
 x !0!G/!3!c/ !4!f/G/c/f/ x G/c/ f/G/c/f/ | x !0!G/!1!B/ !4!f/G/B/f/ x G/B/ f/G/B/f/ | %32
 x !0!G/!4!_B/ !0!e/G/B/e/ x G/B/ e/G/B/e/ | x (!4!F/!2!A/ !1!c/f/c/A/!<(! c/A/F/A/) F/D/F/D/!<)! | %34
 x2 !4!d/!1!f/!4!d/!0!B/ !4!d/!0!B/!0!G/!0!B/"_rall." !0!D/!4!F/!2!E/!0!D/ | x8 |] %36
V:4
 x8 | x8 | x8 | x8 | x8 | x8 | x8 | x8 | !0!A,/!3!C/ x3 A,/C/ x3 | x8 | x8 | x8 | x8 | x8 | x8 | %15
 x8 | !0!D,/!3!F,/ x3 D,/F,/ x3 | x8 | x8 | x8 | x8 | x8 | x8 | x8 | x8 | x8 | x8 | x8 | x8 | x8 | %30
 x8 | x8 | x8 | x8 | x8 | x8 |] %36

